X:102
T:St Patricks Day in the Morning
S:John Moore's Book 2
Z:Transcribed by Steve Mansfield 05/2021
%%VWML: Moore2-4494-p79-0
F:http://www.vwml.org/record/Moore2/4494/p79
M:6/8
L:1/8
K:D
A | ded def | aba gfd | fgf fdA | BcB B2A | 
ded def | aba afd | fgf fdA | B3 d2 :|
|: a | abc' d'2b | c'2a bag | abc' d'2b | c'2a b3 | 
abc' d'c'b | c'ba bc'd' | ded def | aba afd | 
fgf fdA | BcB B2A | ded def | aba afd | 
fgf fdA | B3 d2 :|

